svg/color/unb.svg

<svg width="64" height="65" viewBox="0 0 64 65" fill="none" xmlns="http://www.w3.org/2000/svg">
<rect y="0.303711" width="64" height="64" rx="32" fill="white"/>
<rect x="0.5" y="0.803711" width="63" height="63" rx="31.5" stroke="#070B14" stroke-opacity="0.15"/>
<g clip-path="url(#clip0_11313_5452)">
<path d="M45.8769 19.5037V33.9663C45.8752 37.1763 44.8114 40.2958 42.8514 42.838C40.8913 45.3803 38.1452 47.2026 35.0412 48.021C31.9371 48.8394 28.6495 48.6076 25.6909 47.362C22.7323 46.1164 20.2689 43.927 18.6848 41.135C20.9461 41.5539 23.2575 41.6318 25.5419 41.3661C30.9777 40.7359 36.0109 38.1887 39.7379 34.1819C43.4647 30.175 45.6413 24.9708 45.8769 19.5037Z" fill="#059991"/>
<path d="M45.8765 19.5037C45.0281 24.9213 42.2726 29.8578 38.1068 33.4236C33.9408 36.9894 28.6381 38.9501 23.1545 38.9522C21.348 38.9546 19.5476 38.7442 17.7904 38.3252C17.3651 36.9385 17.1498 35.4958 17.1518 34.0455V19.5037H45.8765Z" fill="#004870"/>
<path d="M25.5381 41.3671C23.2549 41.6325 20.9449 41.5546 18.6848 41.136C19.9872 43.4338 21.8907 45.3336 24.191 46.6316C26.4913 47.9297 29.1016 48.5768 31.7418 48.5037C34.3821 48.4305 36.9526 47.6399 39.1775 46.2165C41.4026 44.7933 43.1979 42.7909 44.3711 40.4245C40.9456 40.3777 37.5566 39.7132 34.3671 38.4628C31.6544 40.0231 28.651 41.0114 25.5419 41.3671" fill="#49C1BF"/>
<path d="M17.6627 19.5037H17.1518V34.0455C17.1498 35.4958 17.3651 36.9385 17.7904 38.3252C19.5476 38.7442 21.348 38.9546 23.1545 38.9522C26.1493 38.9558 29.1158 38.3727 31.8864 37.2357C28.4221 35.4133 25.3687 32.8992 22.915 29.8492C20.4614 26.7991 18.6599 23.278 17.6218 19.5037" fill="#00AEEF"/>
</g>
<defs>
<clipPath id="clip0_11313_5452">
<rect width="29.568" height="29.568" fill="white" transform="translate(17.1518 19.5037)"/>
</clipPath>
</defs>
</svg>

<svg xmlns="http://www.w3.org/2000/svg" width="64" height="65" fill="none" viewBox="0 0 64 65"><rect width="64" height="64" y=".304" fill="#fff" rx="32"/><rect width="63" height="63" x=".5" y=".804" stroke="#070B14" stroke-opacity=".15" rx="31.5"/><g clip-path="url(#unb_svg-a)"><path fill="#059991" d="M45.877 19.504v14.462a14.543 14.543 0 0 1-27.192 7.169 23.04 23.04 0 0 0 21.053-6.953 23 23 0 0 0 6.139-14.678"/><path fill="#004870" d="M45.877 19.504a23.01 23.01 0 0 1-22.723 19.448 23 23 0 0 1-5.364-.627 14.5 14.5 0 0 1-.638-4.28V19.504z"/><path fill="#49C1BF" d="M25.538 41.367a23 23 0 0 1-6.853-.231 14.546 14.546 0 0 0 25.686-.712 28.5 28.5 0 0 1-10.004-1.961 22.9 22.9 0 0 1-8.825 2.904"/><path fill="#00AEEF" d="M17.663 19.504h-.511v14.541c-.002 1.45.213 2.893.638 4.28 1.758.42 3.558.63 5.365.627 2.994.004 5.96-.58 8.731-1.716a28.6 28.6 0 0 1-14.264-17.732"/></g><defs><clipPath id="unb_svg-a"><path fill="#fff" d="M17.152 19.504H46.72v29.568H17.152z"/></clipPath></defs></svg>
